X: 3
T: the New Tyrolese Waltz
%%VWML:Button1818-2292c-p2-0
F:http://www.vwml.org/record/Button1818/2292c/p2
B: "Le Sylphe, Twenty Four Country Dances with Figures for the Year 1818", Button & Whitaker, p.2 #1
F: http://www.vwml.org/browse/browse-collections-dance-tune-books/browse-button1818
Z: 2014 John Chambers <jc:trillian.mit.edu>
N: The Figures by Mr WILSON.
M: 3/4
L: 1/8
K: C
% - - - - - - - - - - - - - - - - - - - - - - - - - - - - -
ef |\
gecc'af | (ag)g3g | fdBGAB | (cBcdef) |\
gecc'af | (ag)g3g | (gabc'd'b) | c'4 :|
|: (eg) |\
(gf)d3f | (fe)c3e | dafdcB | (cdefga) |\
(gf)d3f | (fe)c3e | (ed)(df)(dB) | c4 :|
% - - - - - - - - - - Dance description - - - - - - - - - -
W: WALTZ FIGURE        (Each strain repeated)
W:
W:The 3 Ladies & 3 Gent: set to each other |: swing with
W:right hands round 2d Cu: then with left |: .
W:
W: COUNTRY DANCE FIGURE     (Each strain repeated)
W:
W:Set & hands across quite round with 2d Cu: set & back |:
W:down the mid: up again & turn your partner |: .
W:
%%sep 1 1 450
W:
W:The Waltzes in this & in ``BUTTON & WHITAKER'S'' & ``THOMPSON'S'' Collection
W:will be found more useful to the Dancer than those published in any other,
W:as they are not only adapted for Waltzing, but having proper figures set to them,
W:may be danced as Country Dances, & likewise for Country Dance Waltzes,
W:or Waltz Country Dances.
W:
T: Twoli
%R: waltz
B: "Le Sylphe, Twenty Four Country Dances with Figures for the Year 1818", Button & Whitaker, p.2 #2
F: http://www.vwml.org/browse/browse-collections-dance-tune-books/browse-button1818
Z: 2014 John Chambers <jc:trillian.mit.edu>
N: The Figures by Mr WILSON.
M: 3/8
L: 1/16
K: G
% - - - - - - - - - - - - - - - - - - - - - - - - - - - - -
GB |\
(d2B2).g2 | (d2B2).g2 | (d2g2b2) | d'4(e'd') |\
(c'd').c'.b.a.g | fedcBA | (GFEDEF) | G4 :|
|: A2 |\
dfa2a2 | (a2f2)d'2 | a2f2d2 | (ag)e2 e2 |\
A^ce2e2 | g3fed | d^cBABc | d4 :|
|: d=c |\
(B4d2) | (e4d2) | (g4f2) | (e4d2) |\
c4B2 | A2c2e2 | d4F2 | G4 :|
|: d2 |\
c'2c'bc'2 | b4g2 | fagfed | gfgbe'd' |\
c'2c'bc'2 | b4g2 | (fagfed) | g4 :|
% - - - - - - - - - - Dance description - - - - - - - - - -
W: WALTZ FIGURE        (Each strain repeated)
W:
W:Swing with right hands round 2d Cu: & turn your partner ala waltz |: swing cor.s |:
W:chain figure 4 round at bottom & lead thro' top |: & hands 6 round & back again |: .
W:
W: COUNTRY DANCE FIGURE        (Each strain repeated)
W:
W:Hands 3 round on the Ladies side hands 3 round on the Gent: side |:
W:promenade 3 Cu: |: whole poussette |: & swing corners |: .
W:
%%sep 1 1 450
